gama.ui.shared/icons_svg/dark/layer/layer.chart.svg

<svg height="24.75" viewBox="-814.358 -3651.197 24.75 24.75" width="24.75" xmlns="http://www.w3.org/2000/svg"><g fill="none"><path d="m-810.1427-3650.8223h16.32c2.12075 0 3.84 1.7193 3.84 3.84v16.32c0 2.1208-1.71925 3.84-3.84 3.84h-16.32c-2.1208 0-3.84-1.7192-3.84-3.84v-16.32c0-2.1207 1.7192-3.84 3.84-3.84z" fill="#4288c4"/><path d="m-795.50015-3643.8223h-2.48255c-.2455 0-.4445-.2237-.4445-.5 0-.2762.199-.5.4445-.5h3.5555c.2455 0 .4445.2238.4445.5v4c0 .2763-.199.5-.4445.5-.2454 0-.4444-.2237-.4444-.5v-2.7927l-4.5746 5.1462c-.1736.1953-.455.1953-.6286 0l-2.3524-2.6462-3.2413 3.6462c-.1735.1953-.4549.1953-.6285 0-.1736-.1952-.1736-.5118 0-.7072l3.5556-4c.1735-.195.4549-.195.6285 0l2.3524 2.6466zm1.07295 10c.2455 0 .4445.2238.4445.5 0 .2763-.199.5-.4445.5h-13.3333c-1.2273 0-2.2222-1.1193-2.2222-2.5v-9c0-.2762.199-.5.4444-.5.2455 0 .4445.2238.4445.5v9c0 .8283.5969 1.5 1.3333 1.5z" fill="#fff"/></g></svg>

<?xml version="1.0" encoding="UTF-8" standalone="no"?>
<!DOCTYPE svg PUBLIC "-//W3C//DTD SVG 1.1//EN" "http://www.w3.org/Graphics/SVG/1.1/DTD/svg11.dtd">
<svg xmlns="http://www.w3.org/2000/svg" xmlns:xl="http://www.w3.org/1999/xlink" version="1.1" xmlns:dc="http://purl.org/dc/elements/1.1/" viewBox="-814.3577 -3651.1973 24.75 24.75" width="24.75" height="24.75">
  <defs/>
  <g id="SOURCES" stroke-opacity="1" fill="none" stroke="none" fill-opacity="1" stroke-dasharray="none">
    <title>SOURCES</title>
    <g id="SOURCES_Dark">
      <title>Dark</title>
      <g id="Graphic_11584">
        <title>views/view.other</title>
        <path d="M -810.1427 -3650.8223 L -793.8227 -3650.8223 C -791.70195 -3650.8223 -789.9827 -3649.103 -789.9827 -3646.9823 L -789.9827 -3630.6623 C -789.9827 -3628.5415 -791.70195 -3626.8223 -793.8227 -3626.8223 L -810.1427 -3626.8223 C -812.2635 -3626.8223 -813.9827 -3628.5415 -813.9827 -3630.6623 L -813.9827 -3646.9823 C -813.9827 -3649.103 -812.2635 -3650.8223 -810.1427 -3650.8223 Z" fill="#4288c4"/>
      </g>
      <g id="Graphic_11583">
        <path d="M -795.50015 -3643.8223 L -797.9827 -3643.8223 C -798.2282 -3643.8223 -798.4272 -3644.046 -798.4272 -3644.3223 C -798.4272 -3644.5985 -798.2282 -3644.8223 -797.9827 -3644.8223 L -794.4272 -3644.8223 C -794.1817 -3644.8223 -793.9827 -3644.5985 -793.9827 -3644.3223 L -793.9827 -3640.3223 C -793.9827 -3640.046 -794.1817 -3639.8223 -794.4272 -3639.8223 C -794.6726 -3639.8223 -794.8716 -3640.046 -794.8716 -3640.3223 L -794.8716 -3643.115 L -799.4462 -3637.9688 C -799.6198 -3637.7735 -799.9012 -3637.7735 -800.0748 -3637.9688 L -802.4272 -3640.615 L -805.6685 -3636.9688 C -805.842 -3636.7735 -806.1234 -3636.7735 -806.297 -3636.9688 C -806.4706 -3637.164 -806.4706 -3637.4806 -806.297 -3637.676 L -802.7414 -3641.676 C -802.5679 -3641.871 -802.2865 -3641.871 -802.1129 -3641.676 L -799.7605 -3639.0294 L -795.50015 -3643.8223 Z M -794.4272 -3633.8223 C -794.1817 -3633.8223 -793.9827 -3633.5985 -793.9827 -3633.3223 C -793.9827 -3633.046 -794.1817 -3632.8223 -794.4272 -3632.8223 L -807.7605 -3632.8223 C -808.9878 -3632.8223 -809.9827 -3633.9416 -809.9827 -3635.3223 L -809.9827 -3644.3223 C -809.9827 -3644.5985 -809.7837 -3644.8223 -809.5383 -3644.8223 C -809.2928 -3644.8223 -809.0938 -3644.5985 -809.0938 -3644.3223 L -809.0938 -3635.3223 C -809.0938 -3634.494 -808.4969 -3633.8223 -807.7605 -3633.8223 Z" fill="white"/>
      </g>
    </g>
  </g>
</svg>
